X:5885
T:Springleik fr Folldal
M:3/4
O:Norway
R:Polska
Z:Richard Robinson 
%%TUNEURL: http://www.leeds.ac.uk/music/Info/RRTuneBk/gettune/00000833.html
%%ID:00000833
K:A
(3efg a2-a>g | (3agf e2-ee| \
(3f2d2e2 c>c | d<e fe e>c | \
(3dBd (3cAc B>G |1 A2 B4 :|2 G<A A4 :|
|:c>B Ac E>E | B<c df e>c | \
(3dBd (3cAc B>G |1 A2 B4 :|2 G<A A4 :|
